X:1
M:4/4
T:Elzic's Farewell
K:Ador
"Am"e4e2d2|c3d cBA2 |a3b agef|"G"geae gdcd | 
"Am"e4e2d2|c3d cBA2 | AGAB AGED|"G"EGAB"Am"A4 :|
"Am"A,4 A,B, C2 |"D" D2 DE DCA,C | D2 DE DCA,C | DEDC A,2 G,2|
"Am"A,4 A,B, C2 |"D" D2 DE DCA,C | DEDC A,G,A,C | DEDC"Am" A,4:|
